src/objects/office/1F4C2.svg

<?xml version="1.0" encoding="UTF-8"?>
<svg id="emoji" xmlns="http://www.w3.org/2000/svg" viewBox="0 0 72 72">
  <g id="grid">
    <path d="m68,4v64H4V4h64M72,0H0v72h72V0Z" fill="#b3b3b3"/>
    <path d="m12.923,10.9583h46.1539c1.0621,0,1.9231.861,1.9231,1.9231h0v46.1538c0,1.0621-.861,1.9231-1.9231,1.9231H12.9231c-1.0621,0-1.9231-.861-1.9231-1.9231h0V12.8813c0-1.062.861-1.923,1.923-1.923h0Z" fill="none" stroke="#00a5ff" stroke-miterlimit="10" stroke-width=".1"/>
    <rect x="16" y="4" width="40" height="64" rx="2.2537" ry="2.2537" fill="none" stroke="#00a5ff" stroke-miterlimit="10" stroke-width=".1"/>
    <rect x="4" y="16" width="64" height="40" rx="2.2537" ry="2.2537" fill="none" stroke="#00a5ff" stroke-miterlimit="10" stroke-width=".1"/>
    <circle cx="36" cy="36" r="29" fill="none" stroke="#00a5ff" stroke-miterlimit="10" stroke-width=".1"/>
  </g>
  <g id="color">
    <path d="m15.464,59.6264c.1391-.1691,2.3559-7.8264,2.8998-9.627.457-1.5137,3.9618-15.2702,6.1601-25.071.0084-.1315,32.4839-.6133,32.4839-.6133v-4.0109c0,.5522,0-3.356,0-3.356l-27.4931-.5712c-.0801-1.2364-1.004-4.1216-2.1368-4.1216l-12.5869-.1983c-1.1026,0-2.8321,1.3407-2.8321,2.4437,0,0-.25,36.1831-.25,44.977,0,1.3282,3.7343.1738,3.7551.1486Z" fill="#9b9b9a"/>
    <path d="m23.9444,24.3151c0,.0782-.0083.1557-.0259.2318-.2749,1.226-6.7345,30.0417-7.363,32.1243-.3359,1.1164-.9593,2.3082-1.7645,3.291l43.1115.0104c1.1381,0,1.5216,0,2.1521-2.3899.6676-2.5305,6.6984-30.2693,7.342-33.2323.0017-.009.0066-.0353.0066-.0353,0,0-43.4588,0-43.4588,0Z" fill="#d0cfce"/>
  </g>
  <g id="line">
    <path d="m57.0078,20.3044v-3.3562l-27.3383-.0025c-.198,0-.3586-.165-.3586-.3684l-.0687-1.5169c-.116-1.7878-1.3398-3.0033-2.9967-3.0033h-11.2866c-1.6569,0-3,1.3432-3,3v40.9429" fill="none" stroke="#000" stroke-linecap="round" stroke-linejoin="round" stroke-width="2"/>
    <path d="m17.0271,55.5678c-.5897,1.954-2.9723,4.1389-4.6459,4.394l44.6648.0108c1.6569,0,2.3233-.4388,3-3s7-31.6575,7-31.6575c0-.5523-.4477-1-1-1H24.9649c-.5523,0-1,.4477-1,1,0,0-6.3481,28.2986-6.9378,30.2527Z" fill="none" stroke="#000" stroke-linecap="round" stroke-linejoin="round" stroke-width="2"/>
  </g>
</svg>

<svg id="emoji" viewBox="0 0 72 72" xmlns="http://www.w3.org/2000/svg">
  <g id="grid">
    <path fill="#b3b3b3" d="M68,4V68H4V4H68m4-4H0V72H72V0Z"/>
    <path fill="none" stroke="#00a5ff" stroke-miterlimit="10" stroke-width="0.1" d="M12.923,10.9583H59.0769A1.9231,1.9231,0,0,1,61,12.8814V59.0352a1.9231,1.9231,0,0,1-1.9231,1.9231H12.9231A1.9231,1.9231,0,0,1,11,59.0352V12.8813A1.923,1.923,0,0,1,12.923,10.9583Z"/>
    <rect x="16" y="4" rx="2.2537" width="40" height="64" fill="none" stroke="#00a5ff" stroke-miterlimit="10" stroke-width="0.1"/>
    <rect x="16" y="4" rx="2.2537" width="40" height="64" transform="translate(72) rotate(90)" fill="none" stroke="#00a5ff" stroke-miterlimit="10" stroke-width="0.1"/>
    <circle cx="36" cy="36" r="29" fill="none" stroke="#00a5ff" stroke-miterlimit="10" stroke-width="0.1"/>
  </g>
  <g id="color">
    <path fill="#9B9B9A" stroke="none" d="M15.464,59.6264c0.1391-0.1691,2.3559-7.8264,2.8998-9.627c0.457-1.5137,3.9618-15.2702,6.1601-25.071 c0.0084-0.1315,33.4839-0.6133,33.4839-0.6133v-4.0109c0,0.5522-1-3.356-1-3.356L29.5147,16.377 c-0.0801-1.2364-1.004-4.1216-2.1368-4.1216L14.791,12.0571c-1.1026,0-2.8321,1.3407-2.8321,2.4437c0,0,0.5527,39.7248,0,39.7248 c-0.5527,0-0.9999,2.3271-0.9999,1.7744c0,0,0.3537,3.5947,1.3755,4.566c0.0143,0.0137,0.0302,0.0212,0.0451,0.0335 C12.2471,60.4436,15.305,59.8189,15.464,59.6264z"/>
    <path fill="#D0CFCE" stroke="none" d="M23.9444,24.3151c0,0.0782-0.0083,0.1557-0.0259,0.2318c-0.2749,1.226-6.7345,30.0417-7.363,32.1243 c-0.3359,1.1164-0.9593,2.3082-1.7645,3.291l43.1115,0.0104c1.1381,0,1.5216,0,2.1521-2.3899 c0.6676-2.5305,6.6984-30.2693,7.342-33.2323c0.0017-0.009,0.0066-0.0353,0.0066-0.0353H23.9444z"/>
  </g>
  <g id="hair"/>
  <g id="skin"/>
  <g id="skin-shadow"/>
  <g id="line">
    <path fill="none" stroke="#000000" stroke-linecap="round" stroke-linejoin="round" stroke-miterlimit="10" stroke-width="2" d="M57.0078,20.3044v-3.3562l-27.3383-0.0025c-0.198,0-0.3586-0.165-0.3586-0.3684l-0.0687-1.5169 c-0.116-1.7878-1.3398-3.0033-2.9967-3.0033H14.9589c-1.6569,0-3,1.3432-3,3V56"/>
    <path fill="none" stroke="#000000" stroke-linecap="round" stroke-linejoin="round" stroke-miterlimit="10" stroke-width="2" d="M17.0271,55.5678c-0.5897,1.954-2.2223,4.1389-3.8959,4.394l43.9148,0.0108c1.6569,0,2.3233-0.4388,3-3 c0.6767-2.5612,7-31.6575,7-31.6575c0-0.5523-0.4477-1-1-1H24.9649c-0.5523,0-1,0.4477-1,1 C23.9649,25.3151,17.6168,53.6137,17.0271,55.5678z"/>
  </g>
</svg>
